Papirus/48x48/apps/colorpicker.svg

<svg xmlns="http://www.w3.org/2000/svg" width="48" height="48" version="1">
 <rect width="40" height="40" x="-44" y="-44" rx="2" ry="2" transform="matrix(0,-1,-1,0,0,0)" style="fill:#713a9d"/>
 <path fill="#fff" opacity=".1" d="m6 4c-1.108 0-2 0.892-2 2v1c0-1.108 0.892-2 2-2h36c1.108 0 2 0.892 2 2v-1c0-1.108-0.892-2-2-2h-36z"/>
 <path opacity=".2" d="m6 45c-1.108 0-2-0.892-2-2v-1c0 1.108 0.892 2 2 2h36c1.108 0 2-0.892 2-2v1c0 1.108-0.892 2-2 2h-36z"/>
 <path style="opacity:0.5;fill:#ffffff" d="m 22,23 v 4 h 12 c 1.108,0 2,-0.892 2,-2 0,-1.108 -0.892,-2 -2,-2 z m 4,10 v 4 h 8 c 1.108,0 2,-0.892 2,-2 0,-1.108 -0.892,-2 -2,-2 z"/>
 <path style="fill:#f44336" d="M 29,13 H 14 C 12.892,13 12,13.892 12,15 12,16.108 12.892,17 14,17 H 29 Z"/>
 <path style="fill:#03a9f4" d="M 27,33 H 14 C 12.892,33 12,33.892 12,35 12,36.108 12.892,37 14,37 H 27 Z"/>
 <path style="fill:#4caf50" d="M 21,23 H 14 C 12.892,23 12,23.892 12,25 12,26.108 12.892,27 14,27 H 21 Z"/>
 <path style="opacity:0.2" d="m 36,16 c 0,-2.209 -1.791,-4 -4,-4 -2.209,0 -4,1.791 -4,4 0,2.209 1.791,4 4,4 2.209,0 4,-1.791 4,-4 z"/>
 <path style="opacity:0.2" d="m 30,36 c 0,-2.209 -1.791,-4 -4,-4 -2.209,0 -4,1.791 -4,4 0,2.209 1.791,4 4,4 2.209,0 4,-1.791 4,-4 z"/>
 <path style="opacity:0.2" d="m 26,26 c 0,-2.209 -1.791,-4 -4,-4 -2.209,0 -4,1.791 -4,4 0,2.209 1.791,4 4,4 2.209,0 4,-1.791 4,-4 z"/>
 <path style="fill:#ffffff" d="m 36,15 c 0,-2.209 -1.791,-4 -4,-4 -2.209,0 -4,1.791 -4,4 0,2.209 1.791,4 4,4 2.209,0 4,-1.791 4,-4 z"/>
 <path style="fill:#ffffff" d="m 30,35 c 0,-2.209 -1.791,-4 -4,-4 -2.209,0 -4,1.791 -4,4 0,2.209 1.791,4 4,4 2.209,0 4,-1.791 4,-4 z"/>
 <path style="fill:#ffffff" d="m 26,25 c 0,-2.209 -1.791,-4 -4,-4 -2.209,0 -4,1.791 -4,4 0,2.209 1.791,4 4,4 2.209,0 4,-1.791 4,-4 z"/>
</svg>

<svg xmlns="http://www.w3.org/2000/svg" width="48" height="48" version="1">
 <rect width="40" height="40" x="-44" y="-44" rx="2" ry="2" transform="matrix(0,-1,-1,0,0,0)" style="fill:#7327b0"/>
 <path fill="#fff" opacity=".2" d="m6 4c-1.108 0-2 0.892-2 2v1c0-1.108 0.892-2 2-2h36c1.108 0 2 0.892 2 2v-1c0-1.108-0.892-2-2-2h-36z"/>
 <path opacity=".2" d="m6 45c-1.108 0-2-0.892-2-2v-1c0 1.108 0.892 2 2 2h36c1.108 0 2-0.892 2-2v1c0 1.108-0.892 2-2 2h-36z"/>
 <path style="opacity:0.5;fill:#ffffff" d="M 36,15 C 36,13.892 35.108,13 34,13 H 14 C 12.892,13 12,13.892 12,15 12,16.108 12.892,17 14,17 L 34,17 C 35.108,17 36,16.108 36,15 Z M 36,25 C 36,23.892 35.108,23 34,23 L 14,23 C 12.892,23 12,23.892 12,25 12,26.108 12.892,27 14,27 L 34,27 C 35.108,27 36,26.108 36,25 Z M 36,35 C 36,33.892 35.108,33 34,33 H 14 C 12.892,33 12,33.892 12,35 12,36.108 12.892,37 14,37 H 34 C 35.108,37 36,36.108 36,35 Z"/>
 <path style="fill:#f44336" d="M 29,13 H 14 C 12.892,13 12,13.892 12,15 12,16.108 12.892,17 14,17 H 29 Z"/>
 <path style="fill:#03a9f4" d="M 27,33 H 14 C 12.892,33 12,33.892 12,35 12,36.108 12.892,37 14,37 H 27 Z"/>
 <path style="fill:#4caf50" d="M 21,23 H 14 C 12.892,23 12,23.892 12,25 12,26.108 12.892,27 14,27 H 21 Z"/>
 <path d="M 32,16 C 32,13.791 30.209,12 28,12 25.791,12 24,13.791 24,16 24,18.209 25.791,20 28,20 30.209,20 32,18.209 32,16 Z M 30,36 C 30,33.791 28.209,32 26,32 23.791,32 22,33.791 22,36 22,38.209 23.791,40 26,40 28.209,40 30,38.209 30,36 Z M 26,26 C 26,23.791 24.209,22 22,22 19.791,22 18,23.791 18,26 18,28.209 19.791,30 22,30 24.209,30 26,28.209 26,26 Z" style="opacity:0.2"/>
 <path d="M 32,15 C 32,12.791 30.209,11 28,11 25.791,11 24,12.791 24,15 24,17.209 25.791,19 28,19 30.209,19 32,17.209 32,15 Z M 30,35 C 30,32.791 28.209,31 26,31 23.791,31 22,32.791 22,35 22,37.209 23.791,39 26,39 28.209,39 30,37.209 30,35 Z M 26,25 C 26,22.791 24.209,21 22,21 19.791,21 18,22.791 18,25 18,27.209 19.791,29 22,29 24.209,29 26,27.209 26,25 Z" style="fill:#ffffff"/>
</svg>
